X:15
T:Around The Fairy Fort
R:barndance
C:Vincent Broderick (1920-2008)
Z:id:hn-barndance-15
M:C|
L:1/8
K:D
DE | F2F2 FEDF | A2A2 A2FA | B2B2 AFDE | F2E2 E2DE |
F2F2 FEDF | A2A2 A2FA | dcBA BAFE |1 F2D2 D2 :|2 F2D2 D2 ||
|: (3ABc | d2d2 d2cd | e2e2 e2fe | defg agfe | f2B2 B2 (3ABc |
d2d2 d2cd | e2e2 e2fe | dcBA BAFE | F2D2 D2 :|
|: DE | F2DF A2FA | B2FB A2DE | F2DF A2FA | B2E2 E2DE |
F2DF A2FA | B2FB A2FA | dcBA BAFE | F2D2 D2 :|

